!!!!SEGMENT: pl-cz--iii-830--001-001_raszek-waclaw--sinfonia-d-maestoso.krn
!!!cenid: 17xx:1091
!!!COM: Raszek, Wacław
!!!COM-rismID: pe30020314
!!!CDT: <1848->1848
!!!CNT:
!!!OPR: Sinfonia D
!!!OTL: Maestoso
!!!OMV: 001
!!!PDT:
!!!AGN: Secular
!!!SMS-siglum: PL-CZ
!!!SMS-shelfmark: III-830
!!!SMS-shelfwork: 001-001 M
!!!SMS-variant:
!!!SMS-altvar:
!!!NIFC-rismSourceID: i
!!!NIFC-islandoraID: pl-cz:41068
!!!URL-pdf-islandora: https://repozytorium.nifc.pl/islandora/object/pl-cz%3A41068/datastream/PDF/view
!!!URL-scan:
!!!ONB-nifc: UWAGA: części Sinfonii: Maestoso, Allegro vivace, Romance, Rondo
!!!AIN: 2 clars 1 cor 2 violn
!!!key: d
**kern	**kern	**dynam	**kern	**dynam	**kern	**dynam	**kern	**dynam	**kern	**dynam
*part6	*part5	*part5	*part4	*part4	*part3	*part3	*part2	*part2	*part1	*part1
*staff6	*staff5	*	*staff4	*	*staff3	*	*staff2	*	*staff1	*
*I"Basso	*I"Wiolino Secundo	*	*I"Wiolino Primo	*	*I"Cornu prymo yn D:	*	*I"Clarynetto Secundo et oboe	*	*I"Clarynetto prymo b et oboee	*
*I'b	*I'vl II	*	*I'vl I	*	*I'cor I	*	*I'cl II et ob	*	*I'cl I et ob	*
*ICstr	*ICstr	*	*ICstr	*	*ICbras	*	*ICww	*	*ICww	*
*	*Ivioln	*	*Ivioln	*	*Icor	*	*Iclars	*	*Iclars	*
*clefF4	*clefG2	*	*clefG2	*	*clefG2	*	*clefG2	*	*clefG2	*
*	*	*	*	*	*ITrd6c10	*	*	*	*	*
*d:	*d:	*	*d:	*	*d:	*	*d:	*	*d:	*
*k[b-]	*k[b-]	*	*k[b-]	*	*k[b-]	*	*k[b-]	*	*k[b-]	*
*M2/2	*M2/2	*	*M2/2	*	*M2/2	*	*M2/2	*	*M2/2	*
*met(c|)	*met(c|)	*	*met(c|)	*	*met(c|)	*	*met(c|)	*	*met(c|)	*
=1	=1	=1	=1	=1	=1	=1	=1	=1	=1	=1
!	!LO:TX:a:B:t=Sinfonia	!	!LO:TX:a:B:t=Sinfonia	!	!LO:TX:t=P:problem=brak bemoli przy kluczu	!	!LO:TX:a:B:t=Sinfonia	!	!	!
!	!LO:TX:a:B:t=Maye\nſtoso	!	!LO:TX:a:B:t=Mayeſtoso	!	!LO:TX:a:B:t=Sinfonia	!	!LO:TX:a:B:t=Mayeſtoso	!	!LO:TX:a:B:t=Sinfonia	!
!LO:TX:t=P:problem=niezachowana część w partii	!	!LO:DY:a	!	!LO:DY:a	!LO:TX:a:B:t=Mayestoso	!	!	!LO:DY:a	!LO:TX:a:B:t=Moyeſtoſo	!
!	!	!LO:DY:a:t=for	!	!LO:DY:t=for	!	!LO:DY:t=forte	!	!	!	!
!	!	!	!	!	!	!	!	!LO:DY:a:t=f.	!	!LO:DY:a
1ryy	4.d/	f	4.d/	f	2d\	.	4.d/	f	4.dd\	f
.	8A/	.	8A/	.	.	.	8A/	.	8a\	.
.	8.f/L	.	8.f/L	.	4d\	.	8.f/L	.	8.ff\L	.
.	16d/K	.	16d/K	.	.	.	16d/K	.	16ee\K	.
.	8.a/	.	8.a/	.	4d\	.	8.a/	.	8.gg\	.
.	16f/Jk	.	16f/Jk	.	.	.	16f/Jk	.	16ff\Jk	.
=2	=2	=2	=2	=2	=2	=2	=2	=2	=2	=2
1ryy	8.d/L	.	8.d/L	.	4d\	.	8.d/L	.	8.dd\L	.
.	16A/K	.	16A/K	.	.	.	16B-/K	.	16a\K	.
.	8.d/	.	8.d/	.	4d\	.	8.d/	.	8.dd\	.
.	16f/Jk	.	16f/Jk	.	.	.	16f/Jk	.	16ff\Jk	.
.	4d/	.	4d/	.	4d\	.	4d/	.	4dd\	.
.	4r	.	4r	.	4r	.	4r	.	4r	.
=3	=3	=3	=3	=3	=3	=3	=3	=3	=3	=3
!	!	!	!	!LO:DY:a	!	!	!	!	!	!
1ryy	2r	.	2b-X/	p	1r	.	2r	.	2r	.
.	4r	.	4a/	.	.	.	4r	.	4r	.
!	!	!LO:DY:a	!LO:SIC:s=g#	!	!	!	!	!LO:DY:a	!	!
.	4f/	p	4e#X/	.	.	.	4ff\	p	4gg#X\	.
=4	=4	=4	=4	=4	=4	=4	=4	=4	=4	=4
!	!	!	!	!	!	!LO:DY:a	!	!	!	!
1ryy	4e/	.	4a/	.	4e\	p	4ee\	.	4aa'\	.
.	4e/	.	4a/	.	4e\	.	4ee\	.	4aa'\	.
.	4e/	.	4a/	.	4e\	.	4ee\	.	4aa'\	.
!	!	!	!	!	!	!	!	!LO:DY:a	!	!
.	4r	.	4r	.	4r	.	4r	f	4r	.
=5	=5	=5	=5	=5	=5	=5	=5	=5	=5	=5
!	!	!LO:DY:a	!	!LO:DY:a	!LO:TX:a:t=3	!	!	!	!	!
!	!	!LO:DY:t=for	!	!LO:DY:t=for	!	!	!	!	!	!
1ryy	4.c/	f	4.cn/	f	1r	.	4.c/	.	4.cc\	.
.	8G/	.	8G/	.	.	.	8G/	.	8g\	.
!	!	!	!LO:N:vis=8	!	!	!	!	!	!	!
.	8.e-X/L	.	8.e-X/L	.	.	.	8.e-X/L	.	8.ee-X\L	.
.	16c/K	.	16c/K	.	.	.	16c/K	.	16cc\K	.
!	!	!	!LO:N:vis=8	!	!	!	!	!	!	!
.	8.g/	.	8.g/	.	.	.	8.g/	.	8.gg\	.
.	16e-/Jk	.	16e-/Jk	.	.	.	16e-/Jk	.	16ee-\Jk	.
=6	=6	=6	=6	=6	=6	=6	=6	=6	=6	=6
1ryy	8c/L	.	8.c/L	.	1r	.	8.c/L	.	8.cc\L	.
.	8G/	.	.	.	.	.	.	.	.	.
.	.	.	16G/K	.	.	.	16G/K	.	16g\K	.
.	8c/	.	8.c/	.	.	.	8.c/	.	8.cc\	.
.	8e-X/J	.	.	.	.	.	.	.	.	.
.	.	.	16e-X/Jk	.	.	.	16e-X/Jk	.	16ee-X\Jk	.
.	4c/	.	4c/	.	.	.	4c/	.	4cc\	.
.	4r	.	4r	.	.	.	4r	.	4r	.
!	!LO:LB:g=original	!	!LO:LB:g=original	!	!LO:LB:g=original	!	!	!	!LO:LB:g=original	!
=7	=7	=7	=7	=7	=7	=7	=7	=7	=7	=7
!	!	!	!	!LO:DY:a	!	!	!	!	!	!
1ryy	2r	.	2a-X/	p	1r	.	2r	.	2r	.
.	4r	.	4g/	.	.	.	4r	.	4r	.
.	4e-X/	.	4f#X/	.	.	.	4ee-X\	.	4ff#X\	.
=8	=8	=8	=8	=8	=8	=8	=8	=8	=8	=8
1ryy	4d/	p	4g/	.	4d\	p	4dd\	.	4gg\	.
.	4d/	.	4g/	.	4d\	.	4dd\	.	4gg\	.
.	4d/	.	4g/	.	4d\	.	4dd\	.	4gg\	.
.	4r	.	4r	.	4r	.	4r	.	4r	.
=9	=9	=9	=9	=9	=9	=9	=9	=9	=9	=9
*	*	*	*2\right	*	*	*	*	*	*2\right	*
!	!	!	!	!	!LO:TX:a:t=6	!	!LO:TX:a:t=5	!	!LO:TX:a:t=Solo	!
1ryy	8r	.	8r	.	1r	.	1r	.	2gg\	.
.	8d/L	.	8g/L	.	.	.	.	.	.	.
.	8d/	.	8g/	.	.	.	.	.	.	.
.	8d/J	.	8g/J	.	.	.	.	.	.	.
.	.	.	.	.	.	.	.	.	32qqaa/LLL	.
.	.	.	.	.	.	.	.	.	32qqgg/	.
.	.	.	.	.	.	.	.	.	32qqff/	.
.	.	.	.	.	.	.	.	.	32qqgg/JJJ	.
.	8r	.	8r	.	.	.	.	.	4aa\	.
.	8d/L	.	8g/L	.	.	.	.	.	.	.
.	8d/	.	8g/	.	.	.	.	.	4gg\	.
.	8d/J	.	8g/J	.	.	.	.	.	.	.
=10	=10	=10	=10	=10	=10	=10	=10	=10	=10	=10
1ryy	8r	.	8r	.	1r	.	1r	.	2ee-X\	.
.	8B-/L	.	8e-X/L	.	.	.	.	.	.	.
.	8B-/	.	8e-/	.	.	.	.	.	.	.
.	8B-/J	.	8e-/J	.	.	.	.	.	.	.
.	.	.	.	.	.	.	.	.	32qqff/LLL	.
.	.	.	.	.	.	.	.	.	32qqee-/	.
.	.	.	.	.	.	.	.	.	32qqdd/	.
.	.	.	.	.	.	.	.	.	32qqee-/JJJ	.
.	8r	.	8r	.	.	.	.	.	4gg\	.
.	8B-/L	.	8e-/L	.	.	.	.	.	.	.
.	8B-/	.	8e-/	.	.	.	.	.	4ee-X\	.
.	8B-/J	.	8e-/J	.	.	.	.	.	.	.
=11	=11	=11	=11	=11	=11	=11	=11	=11	=11	=11
1ryy	8r	.	8r	.	1r	.	1r	.	2cc#X\	.
.	8e/L	.	8g/L	.	.	.	.	.	.	.
.	8e/	.	8g/	.	.	.	.	.	.	.
.	8e/J	.	8g/J	.	.	.	.	.	.	.
.	8r	.	8r	.	.	.	.	.	4een\	.
.	8e/L	.	8g/L	.	.	.	.	.	.	.
.	8e/	.	8g/	.	.	.	.	.	4gg\	.
.	8e/J	.	8g/J	.	.	.	.	.	.	.
=12	=12	=12	=12	=12	=12	=12	=12	=12	=12	=12
1ryy	8r	.	8r	.	1r	.	1r	.	4.bb-\	.
.	8c#X/L	.	8en/L	.	.	.	.	.	.	.
.	8c#/	.	8e/	.	.	.	.	.	.	.
.	8c#/J	.	8e/J	.	.	.	.	.	16aa\LL	.
.	.	.	.	.	.	.	.	.	16gg\JJ	.
.	8r	.	8r	.	.	.	.	.	4ff\	.
!	!LO:LB:g=original	!	!	!	!	!	!	!	!	!
.	8e/L	.	8g/L	.	.	.	.	.	.	.
.	8e/	.	8g/	.	.	.	.	.	4ee\	.
.	8e/J	.	8g/J	.	.	.	.	.	.	.
!	!	!	!LO:LB:g=original	!	!	!	!	!	!	!
=13	=13	=13	=13	=13	=13	=13	=13	=13	=13	=13
1ryy	8r	.	8r	.	1r	.	1r	.	4.aa\	.
.	8A/L	.	8f/L	.	.	.	.	.	.	.
.	8f/	.	8a/	.	.	.	.	.	.	.
.	8f/J	.	8a/J	.	.	.	.	.	16gg\LL	.
.	.	.	.	.	.	.	.	.	16ff\JJ	.
.	8r	.	8r	.	.	.	.	.	4ee\	.
.	8d/L	.	8a/L	.	.	.	.	.	.	.
.	8f/	.	8a/	.	.	.	.	.	4dd\	.
.	8f/J	.	8a/J	.	.	.	.	.	.	.
!	!	!	!	!	!	!	!	!	!LO:LB:g=original	!
=14	=14	=14	=14	=14	=14	=14	=14	=14	=14	=14
1ryy	8r	.	8r	.	1r	.	4r	.	8ff\L	.
.	8e/L	.	8f/L	.	.	.	.	.	8ee\	.
.	8g/	.	8a/	.	.	.	8gg\L	.	8bb-\	.
.	8e/J	.	8g/J	.	.	.	8ee\J	.	8gg\J	.
.	4d/	.	4f/	.	.	.	4dd\	.	4ff\	.
!	!	!	!	!	!	!	!	!	!LO:TX:a:t=t	!
.	4c#X/	.	4e/	.	.	.	4cc#X\	.	4ee\	.
=15	=15	=15	=15	=15	=15	=15	=15||:	=15	=15||:	=15
*	*^	*	*^	*	*	*	*	*	*	*
!	!	!	!LO:DY:a	!	!	!LO:DY:a	!	!LO:DY:a	!	!LO:DY:a	!	!LO:DY:a
1ryy	8d/	1A	fp	8f/	1A	fp	2d\	fp	2dd\	fp	2ff\	fp
.	4d/	.	.	4f/	.	.	.	.	.	.	.	.
.	4d/	.	.	4f/	.	.	.	.	.	.	.	.
.	.	.	.	.	.	.	4d\	.	4dd\	.	4ff\	.
.	4d/	.	.	4f/	.	.	.	.	.	.	.	.
.	.	.	.	.	.	.	4d\	.	4dd\	.	4ff\	.
.	8d/	.	.	8f/	.	.	.	.	.	.	.	.
=16	=16	=16	=16	=16	=16	=16	=16	=16	=16	=16	=16	=16
!	!	!	!	!	!	!LO:DY:a	!	!	!	!	!	!
!	!	!	!	!	!	!	!	!	!LO:TX:t=P:problem= pod taktem 15 i 16 dopisane alternatywne (?) takty dla głosu	!	!	!
1ryy	8d/	1A	.	8f/	1A	fp	4d\	.	2dd\	.	2ff\	.
.	4d/	.	.	4f/	.	.	.	.	.	.	.	.
.	.	.	.	.	.	.	4d\	.	.	.	.	.
.	4d/	.	.	4f/	.	.	.	.	.	.	.	.
.	.	.	.	.	.	.	4d\	.	4dd\	.	4ff\	.
.	4d/	.	.	4f/	.	.	.	.	.	.	.	.
.	.	.	.	.	.	.	4d\	.	4dd\	.	4ff\	.
.	8d/	.	.	8f/	.	.	.	.	.	.	.	.
!	!	!	!	!	!	!	!LO:LB:g=original	!	!	!	!	!
=17	=17	=17	=17	=17	=17	=17	=17	=17	=17:||	=17	=17	=17
!	!	!	!LO:DY:a	!	!	!	!	!	!LO:TX:t=P:problem=t. 17-18 zapisane jako repetycja	!	!	!LO:DY:a
!	!	!	!LO:DY:t=f.p.	!	!	!	!	!	!	!	!	!
1ryy	8d/	1B-	fp	8f/	1B-	.	2d\	.	2dd\yy	.	2ff\	fp
.	4d/	.	.	4f/	.	.	.	.	.	.	.	.
.	4d/	.	.	4f/	.	.	.	.	.	.	.	.
.	.	.	.	.	.	.	4d\	.	4dd\yy	.	4ff\	.
.	4d/	.	.	4f/	.	.	.	.	.	.	.	.
.	.	.	.	.	.	.	4d\	.	4dd\yy	.	4ff\	.
.	8d/	.	.	8f/	.	.	.	.	.	.	.	.
!	!LO:LB:g=original	!	!	!	!	!	!	!	!	!	!	!
=18	=18	=18	=18	=18	=18	=18	=18	=18	=18	=18	=18:||	=18
!	!	!	!	!	!	!	!	!	!	!	!LO:TX:t=P:problem=t.18-20 zapisane jako repetycja	!LO:DY:a
1ryy	8d/	1B-	.	8f/	1B-	.	4d\	.	2dd\yy	.	2ff\yy	fp
.	4d/	.	.	4f/	.	.	.	.	.	.	.	.
.	.	.	.	.	.	.	4d\	.	.	.	.	.
.	4d/	.	.	4f/	.	.	.	.	.	.	.	.
.	.	.	.	.	.	.	4d\	.	4dd\yy	.	4ff\yy	.
.	4d/	.	.	4f/	.	.	.	.	.	.	.	.
.	.	.	.	.	.	.	4d\	.	4dd\yy	.	4ff\yy	.
.	8d/	.	.	8f/	.	.	.	.	.	.	.	.
=19	=19	=19	=19	=19	=19	=19	=19	=19	=19	=19	=19	=19
!	!	!	!	!	!	!	!LO:TX:a:t=6	!	!	!LO:DY:a	!	!
1ryy	8e-X/	1c	.	8f/	1A	.	1r	.	2ee-X\	fp	2ff\yy	.
.	4e-/	.	.	4f/	.	.	.	.	.	.	.	.
.	4e-/	.	.	4f/	.	.	.	.	.	.	.	.
.	.	.	.	.	.	.	.	.	4ee-\	.	4ff\yy	.
.	4e-/	.	.	4f/	.	.	.	.	.	.	.	.
.	.	.	.	.	.	.	.	.	4ee-\	.	4ff\yy	.
.	8e-/	.	.	8f/	.	.	.	.	.	.	.	.
!	!	!LO:LB:g=original	!	!	!	!	!	!	!	!	!	!
=20	=20	=20	=20	=20	=20	=20	=20	=20	=20	=20	=20	=20
!	!LO:SIC:s=e-	!	!	!	!	!	!	!	!LO:SIC:s=ee-	!	!	!LO:DY:a
1ryy	8e/	1c	.	8f/	1A	.	1r	.	2ee\	.	2ff\yy	fp
!	!LO:SIC:s=e-	!	!	!	!	!	!	!	!	!	!	!
.	4e/	.	.	4f/	.	.	.	.	.	.	.	.
!	!LO:SIC:s=e-	!	!	!	!	!	!	!	!	!	!	!
.	4e/	.	.	4f/	.	.	.	.	.	.	.	.
!	!	!	!	!	!	!	!	!	!LO:SIC:s=ee-	!	!	!
.	.	.	.	.	.	.	.	.	4ee\	.	4ff\yy	.
!	!LO:SIC:s=e-	!	!	!	!	!	!	!	!	!	!	!
.	4e/	.	.	4f/	.	.	.	.	.	.	.	.
!	!	!	!	!	!	!	!	!	!LO:SIC:s=ee-	!	!	!
.	.	.	.	.	.	.	.	.	4ee\	.	4ff\yy	.
!	!LO:SIC:s=e-	!	!	!	!	!	!	!	!	!	!	!
.	8e/	.	.	8f/	.	.	.	.	.	.	.	.
*	*v	*v	*	*	*	*	*	*	*	*	*	*
*	*	*	*v	*v	*	*	*	*	*	*	*
=21	=21	=21	=21	=21	=21	=21	=21	=21	=21:||	=21
!	!	!	!LO:TX:a:t=dol	!	!	!	!	!	!	!
*	*	*	*2\right	*	*	*	*	*	*	*
!	!	!	!	!LO:DY:t=p.	!	!	!	!	!	!
1ryy	8r	.	2.dd\	p	1r	.	4dd\	.	8ff\	.
.	8f/L	.	.	.	.	.	.	.	8r	.
.	8f/	.	.	.	.	.	4r	.	4r	.
.	8f/J	.	.	.	.	.	.	.	.	.
!	!	!	!	!	!	!	!LO:LB:g=original	!	!	!
.	8r	.	.	.	.	.	2r	.	4r	.
.	8f/L	.	.	.	.	.	.	.	.	.
.	8f/	.	8cc\L	.	.	.	.	.	4r	.
.	8f/J	.	8b-\J	.	.	.	.	.	.	.
=22	=22	=22	=22	=22	=22	=22	=22	=22	=22	=22
!	!	!	!	!	!	!	!LO:TX:t=P:problem=brak t. 22-24	!	!LO:TX:a:t=3	!
1ryy	8r	.	[2ff\	.	1r	.	1ryy	.	1r	.
.	8f/L	.	.	.	.	.	.	.	.	.
.	8f/	.	.	.	.	.	.	.	.	.
.	8f/J	.	.	.	.	.	.	.	.	.
.	8r	.	8ff\L]	.	.	.	.	.	.	.
.	8f/L	.	8cc\	.	.	.	.	.	.	.
.	8f/	.	(8dd\	.	.	.	.	.	.	.
.	8f/J	.	8ee-X\J)	.	.	.	.	.	.	.
=23	=23	=23	=23	=23	=23	=23	=23	=23	=23	=23
1ryy	8r	.	8cc#X\L	.	1r	.	1ryy	.	1r	.
.	8f/L	.	8dd\J	.	.	.	.	.	.	.
.	8f/	.	4.dd\	.	.	.	.	.	.	.
.	8f/J	.	.	.	.	.	.	.	.	.
.	8r	.	.	.	.	.	.	.	.	.
.	8f/L	.	8dd\L	.	.	.	.	.	.	.
.	8f/	.	8cc#\	.	.	.	.	.	.	.
.	8f/J	.	8b-\J	.	.	.	.	.	.	.
!	!LO:LB:g=original	!	!	!	!	!	!	!	!	!
=24	=24	=24	=24	=24	=24	=24	=24	=24	=24	=24
1ryy	8r	.	2ff\	.	1r	.	1ryy	.	1r	.
.	8d/L	.	.	.	.	.	.	.	.	.
.	8d/	.	.	.	.	.	.	.	.	.
.	8d/J	.	.	.	.	.	.	.	.	.
.	8r	.	8ee\L	.	.	.	.	.	.	.
.	8d/L	.	8ee\	.	.	.	.	.	.	.
.	8e/	.	8dd\	.	.	.	.	.	.	.
.	8e/J	.	8cc\J	.	.	.	.	.	.	.
=25	=25	=25	=25	=25	=25||:	=25	=25	=25	=25	=25
!	!	!LO:DY:a	!	!	!	!	!	!LO:DY:a	!	!LO:DY:a
!	!	!LO:DY:t=f.	!	!	!	!	!	!LO:DY:t=f.	!	!LO:DY:t=f.
1ryy	8e/	f	8.cc#X\L	.	2A/	.	2cc#X\	f	2ff\	f
.	4g/	.	.	.	.	.	.	.	.	.
.	.	.	16a\K	.	.	.	.	.	.	.
.	.	.	8.a\	.	.	.	.	.	.	.
.	4g/	.	.	.	.	.	.	.	.	.
.	.	.	16a\Jk	.	.	.	.	.	.	.
.	.	.	8.cc#X\L	.	4A/	.	4ee\	.	4gg\	.
.	4g/	.	.	.	.	.	.	.	.	.
.	.	.	16a\K	.	.	.	.	.	.	.
.	.	.	8.ee\	.	4A/	.	4ee\	.	4gg\	.
.	8g/	.	.	.	.	.	.	.	.	.
.	.	.	16cc#\Jk	.	.	.	.	.	.	.
!	!	!	!LO:LB:g=original	!	!	!	!	!	!	!
=26	=26	=26	=26	=26	=26	=26	=26	=26	=26	=26
1ryy	8f/	.	8.dd\L	.	2A/	.	2dd\	.	2ff\	.
.	4f/	.	.	.	.	.	.	.	.	.
.	.	.	16a\K	.	.	.	.	.	.	.
.	.	.	8.dd\	.	.	.	.	.	.	.
.	4f/	.	.	.	.	.	.	.	.	.
.	.	.	16ff\Jk	.	.	.	.	.	.	.
.	.	.	8.aa\L	.	4A/	.	4dd\	.	4ff\	.
.	4f/	.	.	.	.	.	.	.	.	.
.	.	.	16ff\K	.	.	.	.	.	.	.
.	.	.	8.ee\	.	4A/	.	4dd\	.	4ff\	.
.	8f/	.	.	.	.	.	.	.	.	.
.	.	.	16dd\Jk	.	.	.	.	.	.	.
=27	=27	=27	=27	=27	=27:||	=27	=27	=27	=27	=27
!	!	!	!	!	!LO:TX:t=P:problem=t.27-28 zapisane jako repetycja	!	!	!	!	!
1ryy	8g/	.	8.cc#X\L	.	2A/yy	.	2cc#X\	.	2ff\	.
.	4g/	.	.	.	.	.	.	.	.	.
.	.	.	16a\K	.	.	.	.	.	.	.
.	.	.	8.a\	.	.	.	.	.	.	.
.	4g/	.	.	.	.	.	.	.	.	.
.	.	.	16a\Jk	.	.	.	.	.	.	.
.	.	.	8.cc#\L	.	4A/yy	.	4ee\	.	4gg\	.
.	4g/	.	.	.	.	.	.	.	.	.
.	.	.	16a\K	.	.	.	.	.	.	.
.	.	.	8.ee\	.	4A/yy	.	4ee\	.	4gg\	.
.	8g/	.	.	.	.	.	.	.	.	.
.	.	.	16cc#\Jk	.	.	.	.	.	.	.
!	!	!	!	!	!	!	!	!	!LO:LB:g=original	!
=28	=28	=28	=28	=28	=28	=28	=28	=28	=28	=28
1ryy	8f/	.	8.dd\L	.	2A/yy	.	2dd\	.	2ff\	.
.	4f/	.	.	.	.	.	.	.	.	.
.	.	.	16a\K	.	.	.	.	.	.	.
.	.	.	8.ff\	.	.	.	.	.	.	.
.	4f/	.	.	.	.	.	.	.	.	.
.	.	.	16dd\Jk	.	.	.	.	.	.	.
.	.	.	8.aa\L	.	4A/yy	.	4dd\	.	4ff\	.
.	4f/	.	.	.	.	.	.	.	.	.
.	.	.	16ff\K	.	.	.	.	.	.	.
.	.	.	8.ddd\	.	4A/yy	.	4dd\	.	4ff\	.
.	8f/	.	.	.	.	.	.	.	.	.
.	.	.	16aa\Jk	.	.	.	.	.	.	.
=29	=29	=29	=29	=29	=29	=29	=29	=29	=29	=29
!	!	!	!	!	!	!	!LO:TX:t=P:problem=problem zapisane półtora taktu nad pięciolinią	!	!	!
1ryy	4e/	.	4ccc#X\	.	4A/	.	4cc#X\	.	4ee\	.
.	4r	.	4r	.	4r	.	4r	.	4r	.
!	!	!LO:DY:a	!	!	!	!	!	!	!	!LO:DY:a
.	(2f/	p	2a#X/	.	2A/	p	2dd\	.	(2ff\	p
=30	=30	=30	=30	=30	=30	=30	=30	=30	=30	=30
1ryy	4e/)	.	4a/	.	4A/	.	4cc#X\	.	4ee\)	.
.	4r	.	4r	.	4r	.	4r	.	4r	.
.	(2d/	.	2f/	.	2A/	.	2ff\	.	2gg#X\	.
!	!LO:LB:g=original	!	!	!	!	!	!	!	!	!
=31	=31	=31	=31	=31	=31	=31	=31	=31	=31	=31
1ryy	4c#X/)	.	4e/	.	4A/	.	4ee\	.	4aa\	.
.	4r	.	4r	.	4r	.	4r	.	4r	.
!	!	!	!LO:LB:g=original	!	!	!	!	!	!	!
.	4A/	.	4A/	.	4A/	.	4a/	.	4a/	.
.	4A/	.	4A/	.	4A/	.	4a/	.	4a/	.
=32	=32	=32	=32	=32	=32	=32	=32	=32	=32	=32
1ryy	2A/	.	2A/	.	2A/	.	2a/	.	2a/	.
.	2r	.	2r	.	2r	.	2r	.	2r	.
==	==	==	==	==	==	==	==	==	==	==
*-	*-	*-	*-	*-	*-	*-	*-	*-	*-	*-
!!!system-decoration: [(s1,s2)][(s3)][(s4,s5)]s6
!!!ENC: Marcin Jachim
!!!END: 2020-10-19
!!!ENC: Natalia Wrzos
!!!END: 2022-02-09
!!!YEC: Copyright 2022 Narodowy Instytut Fryderyka Chopina (https://polishscores.org)
!!!YEM: Licence CC BY 4.0 (https://creativecommons.org/licenses/by/4.0)
